!!!ONB: MCCC : ILB0193_01 : Extracted Monophonic Melody
!!!COM: Beethoven, Ludwig van
!!!OPR: Piano Sonata No.32
!!!OMV: 1
!!!SCT: Op.111
!!!ODT: 1821///
**kern
*thru
*Ipiano
*>A
*clefG2
*k[b-e-a-]
*c:
*M4/4
*MM60
32ee-
4ee-[
8..ee-]
32cc
8.cc
32b
32cc
=2
8b
8r
8cc
8r
8dd
8r
4r
=3
8..r
32aa-
[4aa-
8..aa-]
32ff
8.ff
32ee
32ff
=4
8ee
8r
8ff
8r
8gg
8r
4r
=5
8..r
32ddd-
4ddd-[
8..ddd-]
32bb-
8.bb-
32aa
32bb-
=6
8..bb-
32bb-
4bb-[
8..bb-]
32aa-
8..aa-
32gg-
=7
8..gg-
32gg-
4gg-[
8..gg-]
32gg-
8..gg-
32gg-
=8
8..gg-
32ff
4ff[
8..ff]
32ff
8..ff
32ff
=9
8..ff
32ee-
4ee-[
8..ee-]
32ee-
8..ee-
32dd-
=10
8..dd-
32dd-
8..dd-
32dd-
8dd-
8cc
8cc
8cc
=11
8b
8r
4r
4r
4g
=12
4a
4b
4cc
8..cc
32b
=13
4.b
8r
4r
4G
=14
4A
4B
4c
8..c
32B
=15
2B
4..B
16B
=16
1B
=17
*MM120
1d
=18
16g
16AA-
16GG
16AA-
16GG
16AA-
16GG
16AA-
16GG
16AA-
16GG
16AA-
16GG
16AA-
16GG
32AA
32BB
=19
*>B
4C
4r
4r
8r
24GG
24AA
24BB
=20
4C
4E-
4.BB
24GG
24AA
24BB
=21
4C
4E-
4.BB
8A-
=22
8G
8F
8E-
8D
16E-
16F
16E-
16D
8C
8A-
=23
8G
8F
8E-
8D
16E-
16F
16E-
16D
16C
16A-
16B-
16A-
=24
16G
16A-
16G
16F
16E-
16F
16E-
16D
16E-
16F
16E-
16D
16C
16G
16F
16E-
=25
16F
16G
16F
16E-
16D
16A-
16G
16F
16G
16A-
16G
16F
16E
16B-
16A-
16G
=26
16A-
16c
16G
16c
16F
16c
16F#
16c
16B
16A
16G
16d
16c
16B
16f
16e-
=27
16d
16a-
16g
16f
16dd
16cc
16b
16ff
16ee-
16dd
16aa-
16gg
16ff
16ddd
16ccc
16bb
=28
*8va
16fff
16eee-
16ddd
16aaa-
16ggg
16fff
16eee-
16ddd
*X8va
16ccc
16bb
16aa-
16gg
16ff
16ee-
16dd
16gg
=29
4cc
4ee-
4.b
8aa-
=30
8gg
8ff
8ee-
8dd
16ee-
16ff
16ee-
16dd
8cc
8aa-
=31
8gg
8ff
8ee-
8dd
16ee-
16ff
16ee-
16dd
8cc
8aaa-
=32
8ggg
8fff
8eee-
16ddd
16gg
16eee-
16gg
16ddd
16gg
16ccc
16gg
16bb
16gg
=33
8ccc
8bb-
16aa-
16cc
16gg
16cc
16aa-
16cc
16ff
16cc
16ee-
16cc
16dd
16cc
=34
8dd
8cc
2cc
4cc
=35
4cc
8ee-
8dd
4cc
4e-
=36
[4B
16B]
16d
16f
16a-
16g
16a-
16g
16f
16e-
16f
16e-
16d
=37
16e-
16f
16e-
16d
16c
16e-
16g
16b-
16a-
16b-
16a-
16g
16f
16g
16f
16e-
=38
16f
16g
16f
16e-
16d
16f
16a-
16cc
16b-
16cc
16b-
16a-
16g
16a-
16g
16f
=39
16g
16b-
16a-
16g
16f
16e-
16d
16e-
16f
16c-
16B-
16c-
16B-
16d
16f
16a-
=40
8g
8f
8b-
8a-
8b-
8dd-
8cc
8g
=41
8r
8g
8cc
8b-
8cc
8ee-
8ee-
8a
=42
8r
8b-
8dd-
8cc
8dd-
8ff
8ee-
16b-
16a-
=43
16g
16e-
16f
16g
16a-
16g
16a-
16b-
4aa-
4ccc
=44
*k[b-e-a-d-]
[4gg
16gg]
16bb-
16ddd-
16fff
*8va
16eee-
16fff
16eee-
16ddd-
16ccc
16ddd-
16ccc
16bb-
=45
16ccc
16ddd-
16ccc
16bb-
16aa
16ccc
16eee-
16ggg-
16fff
16ggg-
16fff
16eee-
16ddd-
16eee-
16ddd-
16ccc
=46
16ddd-
16eee-
16ddd-
16ccc
16bb-
16ddd-
16fff
16aaa-
16ggg-
16aaa-
16ggg-
16fff
16eee-
16fff
16eee-
16ddd-
=47
16eee-
16fff
16eee-
16ddd-
16ccc
16eee-
16ggg-
16bbb-
16aaa-
16bbb-
16aaa-
16ggg-
16fff
16ggg-
16fff
16eee-
=48
2fff
*X8va
2DD-
=49
2DD
*8va
2cccc-
*X8va
=50
4r
2eee-
8.ccc
16aa-
=51
4aa-
8gg
16r
16ff
4ff
8ee-
16r
16ddd-
=52
4ddd-
4ccc[
*MM60
48ccc]
48eee-
48ddd
48eee-
48fff
48eee-
48bb
48ccc
48bb
48ccc
48ddd-
48ccc
24gg
24aa-
24bb-
24aa-
24gg
24aa-
=53
20aa-
20gg
20aa-
20bb-
20aa-
16r
8gg
16ff
20ff
20ee-
20ff
20gg
20ff
8ee-
16r
16ddd-
=54
4ddd-
4ccc
4r
8.r
*MM50
16fff
=55
4fff
4eee-
4r
8r
*MM120
*8va
16aaa-
16cccc-
=56
16aaa-
16cccc-
16fff
16aaa-
16ddd
16fff
16ccc-
16ddd
*X8va
16aa-
16ccc-
16ff
16aa-
16dd
16ff
16cc-
16dd
=57
16a-
16cc-
16f
16a-
16d
16e-
16f
16g
16a-
16b-
16cc
16dd-
16ee-
16ee
16ff
16ee-
=58
16ff
16ee-
16cc
16a-
16ff
16ee-
16cc
16a-
16ff
16ee-
16dd-
16b-
16ff
16ee-
16dd-
16b-
=59
16bb-
16aa-
16ee-
16cc
16bb-
16aa-
16ee-
16cc
16bb-
16aa-
16ff
16dd-
16eee-
16ddd-
16aa-
16dd-
=60
16eee-
16ddd-
16aa-
16dd-
16eee-
16ddd-
16aa-
16dd-
16ddd-
16ccc
16aa-
16ee-
16ddd-
16ccc
16aa-
16ee-
=61
16ddd-
16ccc
16aa-
16ee-
16ccc
16bb-
16gg
16dd-
4aa-
4ccc
=62
2gg
4gg-
4aa-
=63
2ff
4ff-
4aa-
=64
4ee-
8.aa-
16ccc
8eee-
*8va
8eee-
8.eee-
32ddd-
32eee-
=65
8eee-
16fff
16ggg
8ggg
8aaa-
*X8va
8r
8ee-
8.ee-
32dd
32ee-
=66
8ee-
16ff
16gg
8gg
8aa-
8r
8e-
8e-
16f
16g
=67
16a-
16b-
16cc
16b
16cc
16dd-
16ee--
16dd-
16ee--
16ee-
16ff-
16ee-
16ff-
16ff
16gg-
16gg
=68
16aa-
16bb-
16ccc
16bb
*8va
16ccc
16ddd-
16eee--
16ddd-
16eee--
16eee-
16fff-
16eee-
16fff-
16fff
16ggg-
16ggg
*X8va
=69
*>B1
*8va
4aaa-
*X8va
4r
4a-
8r
24GG
24AA
24BB
=70
*>B
4C
4r
4r
8r
24GG
24AA
24BB
=71
4C
4E-
4.BB
24GG
24AA
24BB
=72
4C
4E-
4.BB
8A-
=73
8G
8F
8E-
8D
16E-
16F
16E-
16D
8C
8A-
=74
8G
8F
8E-
8D
16E-
16F
16E-
16D
16C
16A-
16B-
16A-
=75
16G
16A-
16G
16F
16E-
16F
16E-
16D
16E-
16F
16E-
16D
16C
16G
16F
16E-
=76
16F
16G
16F
16E-
16D
16A-
16G
16F
16G
16A-
16G
16F
16E
16B-
16A-
16G
=77
16A-
16c
16G
16c
16F
16c
16F#
16c
16B
16A
16G
16d
16c
16B
16f
16e-
=78
16d
16a-
16g
16f
16dd
16cc
16b
16ff
16ee-
16dd
16aa-
16gg
16ff
16ddd
16ccc
16bb
=79
*8va
16fff
16eee-
16ddd
16aaa-
16ggg
16fff
16eee-
16ddd
*X8va
16ccc
16bb
16aa-
16gg
16ff
16ee-
16dd
16gg
=80
4cc
4ee-
4.b
8aa-
=81
8gg
8ff
8ee-
8dd
16ee-
16ff
16ee-
16dd
8cc
8aa-
=82
8gg
8ff
8ee-
8dd
16ee-
16ff
16ee-
16dd
8cc
8aaa-
=83
8ggg
8fff
8eee-
16ddd
16gg
16eee-
16gg
16ddd
16gg
16ccc
16gg
16bb
16gg
=84
8ccc
8bb-
16aa-
16cc
16gg
16cc
16aa-
16cc
16ff
16cc
16ee-
16cc
16dd
16cc
=85
8dd
8cc
2cc
4cc
=86
4cc
8ee-
8dd
4cc
4e-
=87
[4B
16B]
16d
16f
16a-
16g
16a-
16g
16f
16e-
16f
16e-
16d
=88
16e-
16f
16e-
16d
16c
16e-
16g
16b-
16a-
16b-
16a-
16g
16f
16g
16f
16e-
=89
16f
16g
16f
16e-
16d
16f
16a-
16cc
16b-
16cc
16b-
16a-
16g
16a-
16g
16f
=90
16g
16b-
16a-
16g
16f
16e-
16d
16e-
16f
16c-
16B-
16c-
16B-
16d
16f
16a-
=91
8g
8f
8b-
8a-
8b-
8dd-
8cc
8g
=92
8r
8g
8cc
8b-
8cc
8ee-
8ee-
8a
=93
8r
8b-
8dd-
8cc
8dd-
8ff
8ee-
16b-
16a-
=94
16g
16e-
16f
16g
16a-
16g
16a-
16b-
4aa-
4ccc
=95
[4gg
16gg]
16bb-
16ddd-
16fff
*8va
16eee-
16fff
16eee-
16ddd-
16ccc
16ddd-
16ccc
16bb-
=96
16ccc
16ddd-
16ccc
16bb-
16aa
16ccc
16eee-
16ggg-
16fff
16ggg-
16fff
16eee-
16ddd-
16eee-
16ddd-
16ccc
=97
16ddd-
16eee-
16ddd-
16ccc
16bb-
16ddd-
16fff
16aaa-
16ggg-
16aaa-
16ggg-
16fff
16eee-
16fff
16eee-
16ddd-
=98
16eee-
16fff
16eee-
16ddd-
16ccc
16eee-
16ggg-
16bbb-
16aaa-
16bbb-
16aaa-
16ggg-
16fff
16ggg-
16fff
16eee-
=99
2fff
*X8va
2DD-
=100
2DD
*8va
2cccc-
*X8va
=101
4r
2eee-
8.ccc
16aa-
=102
4aa-
8gg
16r
16ff
4ff
8ee-
16r
16ddd-
=103
4ddd-
4ccc[
*MM60
48ccc]
48eee-
48ddd
48eee-
48fff
48eee-
48bb
48ccc
48bb
48ccc
48ddd-
48ccc
24gg
24aa-
24bb-
24aa-
24gg
24aa-
=104
20aa-
20gg
20aa-
20bb-
20aa-
16r
8gg
16ff
20ff
20ee-
20ff
20gg
20ff
8ee-
16r
16ddd-
=105
4ddd-
4ccc
4r
8.r
*MM50
16fff
=106
4fff
4eee-
4r
8r
*MM120
*8va
16aaa-
16cccc-
=107
16aaa-
16cccc-
16fff
16aaa-
16ddd
16fff
16ccc-
16ddd
*X8va
16aa-
16ccc-
16ff
16aa-
16dd
16ff
16cc-
16dd
=108
16a-
16cc-
16f
16a-
16d
16e-
16f
16g
16a-
16b-
16cc
16dd-
16ee-
16ee
16ff
16ee-
=109
16ff
16ee-
16cc
16a-
16ff
16ee-
16cc
16a-
16ff
16ee-
16dd-
16b-
16ff
16ee-
16dd-
16b-
=110
16bb-
16aa-
16ee-
16cc
16bb-
16aa-
16ee-
16cc
16bb-
16aa-
16ff
16dd-
16eee-
16ddd-
16aa-
16dd-
=111
16eee-
16ddd-
16aa-
16dd-
16eee-
16ddd-
16aa-
16dd-
16ddd-
16ccc
16aa-
16ee-
16ddd-
16ccc
16aa-
16ee-
=112
16ddd-
16ccc
16aa-
16ee-
16ccc
16bb-
16gg
16dd-
4aa-
4ccc
=113
2gg
4gg-
4aa-
=114
2ff
4ff-
4aa-
=115
4ee-
8.aa-
16ccc
8eee-
*8va
8eee-
8.eee-
32ddd-
32eee-
=116
8eee-
16fff
16ggg
8ggg
8aaa-
*X8va
8r
8ee-
8.ee-
32dd
32ee-
=117
8ee-
16ff
16gg
8gg
8aa-
8r
8e-
8e-
16f
16g
=118
16a-
16b-
16cc
16b
16cc
16dd-
16ee--
16dd-
16ee--
16ee-
16ff-
16ee-
16ff-
16ff
16gg-
16gg
=119
16aa-
16bb-
16ccc
16bb
*8va
16ccc
16ddd-
16eee--
16ddd-
16eee--
16eee-
16fff-
16eee-
16fff-
16fff
16ggg-
16ggg
*X8va
=120
*>B2
*8va
4aaa-
*X8va
2r
4a-
=121
4r
4g
2r
=122
*>C
*k[b-e-]
8r
24a
24b
24cc#
2r
4dd
=123
4r
8r
24d
24e
24f#
4g
4b-
=124
2f#
4f
4a-
=125
2e
4e-
4g
=126
4d
8.g
16b-
4dd
4d
=127
2d
2e-
=128
2A
2f#
=129
16g
16d
16e-
16f
16g
16f
16e-
16d
4c
4e-
=130
4.B
8a-
8g
8f
8e-
8d
=131
2cc
2dd-
=132
2g
2ee
=133
8ff
16a-
16g
16f
16a-
16dd-
16b
16cc
16b
16cc
16b-
16cc
16a-
16cc
16g
=134
16a-
16B-
16A-
16G
16F
16A-
16d-
16B
16c
16B
16c
16B-
16c
16A-
16c
16G
=135
16c
16A-
16c
16G
16B
16F
16c
16E-
16d
16G
16e
16c
16f
16c
16cc
16e-
=136
16cc
16e-
16ee-
16e-
16ee-
16e-
16ee-
16e-
16ee-
16e-
16ee-
16e-
16ee-
16e-
16cc
16c
=137
4g
4b
2f#
=138
*k[b-e-a-]
4cc
4ee-
2b
=139
4ff
4aa-
2ee
=140
4gg
4bb-
2ff#
=141
4ccc
4eee-
4bb
8r
*8va
8aaa-
=142
16ggg
16aaa-
16ggg
16fff
16eee-
16fff
16eee-
16ddd
16eee-
16fff
16eee-
16ddd
*X8va
16ccc
16gg
16aa
16bb
=143
4ccc
4eee-
4.bb
8aaa-
=144
8ggg
8fff
8eee-
8ddd
16eee-
16fff
16eee-
16ddd
8ccc
8aaa-
=145
8ggg
8fff
8eee-
8ddd
16eee-
16fff
16eee-
16ddd
8ccc
8aa-
=146
8gg
8ff
8ee-
8dd
8g
16ee-
16ff
16ee-
16dd
8aaa-
=147
16ggg
16r
16fff
16r
16eee-
16r
16ddd
16r
16eee-
16r
16ddd
16r
16ccc
16r
16bb
16r
=148
16ccc
16r
16bb-
16r
16aa-
16r
16gg
16r
16aa-
16r
16gg
16r
16ff
16r
16ee-
16r
=149
16dd-
16r
16aa-
16r
16ddd-
16r
16fff
16r
16aaa-
16r
16aa-
16r
16ff
16r
16dd-
16r
=150
16dd-
16r
16cc
16r
16cc
16r
16cc
16r
8cc
4dd-
8b-
=151
16a-
16cc
16b-
16a-
16g
16f
16e
16f
16g
16a-
16b-
16g
16d-
16e
16g
[16b-
=152
8b-]
8e
8f
8e
8f
8b-
8a-
8f
=153
8r
8f
8g
[8g
8g]
8cc
8b-
8g
=154
8r
8g
8a-
[8a-
8a-]
8dd-
8cc
16cc
16b-
=155
8a
16b-
16cc
16f
16g-
16f
16e-
4b-
4dd-
=156
4.a
8gg-
16ff
16gg-
16ff
16ee-
16dd-
16ee-
16dd-
16cc
=157
16dd-
16ee-
16dd-
16cc
16b-
16dd-
16ff
16aa-
16gg-
16aa-
16gg-
16ff
16ee-
16ff
16ee-
16dd-
=158
16ee-
16ff
16ee-
16dd-
16cc
16ee-
16gg-
16bb-
16aa-
16bb-
16aa-
16gg-
16ff
16gg-
16ff
16ee-
=159
*8va
4ddd-
4fff
[4ccc
16ccc]
16eee-
16ggg-
16bbb-
=160
16aaa-
16bbb-
16aaa-
16ggg-
16fff
16ggg-
16fff
16eee-
16fff
16ggg-
16fff
16eee-
16ddd
16fff
16aaa-
16cccc-
=161
16bbb-
16cccc-
16bbb-
16aaa-
16ggg-
16aaa-
16ggg-
16fff
16ggg-
16aaa-
16ggg-
16fff
16eee
16ggg
16bbb-
16ddd-
=162
16ccc
16ddd-
16ccc
16bb-
16aa-
16bb-
16aa-
16gg
16aa-
16bb-
16aa-
16gg
16ff#
16aa
16ccc
16eee-
=163
16ddd
16eee-
16ddd
16ccc
16bb-
16ccc
16bb-
16aa
16bb
16ccc
16bb
16aa
16bb
16ddd
16fff
16aaa-
=164
16ggg
16aaa-
16ggg
16fff
16eee-
16fff
16eee-
16ddd
16eee-
16fff
16eee-
16ddd
16eee-
16ggg
16aaa
16bbb
=165
2cccc
*X8va
2CC
=166
2FFF
2ccc
=167
4r
2ggg
8.eee
16ccc
=168
4ccc
8bb
16r
16aa
4aa
8gg
16r
16fff
=169
4fff
4eee[
*MM50
48eee]
48ggg
48fff#
48ggg
48aaa
48ggg
48ddd#
48eee
48fff
48eee
48bb
48ccc
36ddd
36ccc
36ff#
36gg
36gg#
36aa
36gg
36ee
36cc
=170
20cc
20b
20cc
20dd
20cc
8b
16r
16a
20a
20g
20a
20b
20a
8g
8r
=171
4ff
4ee
4r
8.r
16aa
=172
4aa
4gg
4r
*MM120
8.r
16aa-
=173
4aa-
2gg
4bb-[
=174
4bb-]
4bb-[
8bb-]
8aa
8bb-
8bb
=175
16r
16cc
16ff
16aa-
4ccc
16r
16cc
16ff
16aa-
4ccc
=176
16r
16cc
16gg
16bb-
4ccc
16r
16cc
16ee
16gg
4ccc
=177
*MM80
16r
16cc
16ff
16aa-
16ccc
16eee
16fff
16ccc
24eee-
24ddd-
24bb-
24ddd-
24ccc
24aa-
24ccc
24bb-
24gg
24bb-
24aa-
24ff
=178
20ff
20ee
20ff
20gg
20ff
8ee
16r
16dd-
20dd-
20cc
20dd-
20ee-
20dd-
8cc
16r
16bb-
=179
*MM90
20bb-
20aa-
20bb-
20ccc
20bb-
8aa-
8ccc
20ccc
20bb
20ccc
20ddd
20ccc
8bb
8ddd
=180
*MM100
20ddd
20ccc
20ddd
20eee-
20ddd
8ccc
8eee-
20eee-
20ddd
20eee-
20fff
20eee-
8ddd
8fff
=181
*MM105
*8va
20fff
20eee-
20fff
20ggg
20fff
8eee-
8ggg
20ggg
20fff
20ggg
20aaa-
20ggg
8fff
8aaa-
=182
*MM110
20aaa-
20ggg
20aaa-
20bbb-
20aaa-
8ggg
8bbb-
20bbb-
20aaa-
20bbb-
20cccc
20bbb-
8aaa-
8bbb
=183
*MM120
16cccc
16eeee-
16aaa
16cccc
16fff#
16aaa
16eee-
16fff#
*X8va
16ccc
16eee-
16aa
16ccc
16ff#
16aa
16ee-
16ff#
=184
16dd
16ff
16b
16dd
16a-
16b
16f
16a-
16d
16f
16B
16d
16A-
16B
16A-
16B
=185
16G
16B
16c
16d
16e-
16f
16g
16a-
16b
16cc
16dd
16ee-
16ff
16ff#
16gg
16ff#
=186
16aa-
16gg
16ee-
16cc
16aa-
16gg
16ee-
16cc
16aa-
16gg
16ff
16dd
16aa-
16gg
16ff
16dd
=187
16ddd-
16ccc
16gg
16ee
16ddd-
16ccc
16gg
16ee
16ggg
16fff
16ccc
16ff
16ggg
16fff
16ccc
16ff
=188
16ggg
16fff#
16eee-
16ccc
16ggg
16fff#
16eee-
16ccc
16aaa-
16ggg
16eee-
16ccc
16fff
16eee-
16ccc
16gg
=189
16fff
16eee-
16ccc
16gg
16eee-
16ddd
16bb
16ff
4ccc
4eee-
=190
2bb
4bb-
4ccc
=191
2aa
4aa-
4ccc
=192
4gg
*8va
8.ccc
16eee-
8ggg
8ggg
8.ggg
32fff#
32ggg
=193
8ggg
8bbb
8bbb
8cccc
*X8va
8r
8.gg
32ff#
32gg
8gg
=194
8gg
8bb
8bb
8ccc
8r
8g
16a-
16g
16a
16b
=195
16cc
16dd
16ee-
16dd
16ee-
16ee
16ff
16ee
16ff
16ff#
16gg
16ff#
16gg
16aa
16bb-
16bb
=196
*8va
16ccc
16ddd
16eee-
16ddd
16eee-
16eee
16fff
16eee
16fff
16fff#
16ggg
16fff#
16ggg
16aaa
16bbb-
16bbb
=197
4cccc
*X8va
4cc
4r
4ee-
=198
4r
4b
4r
4dd
=199
4r
4b-
4r
4dd-
=200
4r
4a
4r
4cc
=201
2r
2cc
=202
2cc
4.cc
8dd
=203
4ee
4cc
2cc
=204
2cc
4.cc
8ff
=205
4gg
4cc
2cc
=206
2cc
4.cc
8bb
=207
1bb
=208
2ccc
2ccc
=209
1ccc
==
*-
